icons/extensions/lua.svg

<?xml version="1.0" encoding="UTF-8"?>
<svg width="42px" height="42px" viewBox="0 0 42 42" version="1.1" xmlns="http://www.w3.org/2000/svg" xmlns:xlink="http://www.w3.org/1999/xlink">
    <!-- Generator: Sketch 44.1 (41455) - http://www.bohemiancoding.com/sketch -->
    <desc>Created with Sketch.</desc>
    <defs></defs>
    <g id="扩展名-(icons/extensions-5-10)" stroke="none" stroke-width="1" fill="none" fill-rule="evenodd">
        <g id="Lua">
            <path d="M6,11.0049466 C6,9.89764516 6.88976324,9 8.00359486,9 L30.004543,9 C30.5543187,9 31.3127724,9.31277239 31.7057732,9.70577316 L35.2942268,13.2942268 C35.6840146,13.6840146 36,14.4509254 36,14.9947712 L36,31.0025781 C36,32.1057238 35.1021596,33 34.008383,33 L7.99161703,33 C6.89167732,33 6,32.1029738 6,30.9950534 L6,11.0049466 Z" id="Mask" fill="#4D3DF4"></path>
            <path d="M14.2773438,28.2548828 L10.8789062,28.2548828 L10.8789062,22 L10,22 L10,29.0458984 L14.2773438,29.0458984 L14.2773438,28.2548828 Z M20.85538,23.7822266 L20.0155362,23.7822266 L20.0155362,26.8974609 C20.0155362,27.3597028 19.8926533,27.7210273 19.6468839,27.9814453 C19.4011144,28.2418633 19.0454865,28.3720703 18.5799893,28.3720703 C18.1600654,28.3720703 17.8565202,28.258953 17.6693448,28.0327148 C17.4821694,27.8064767 17.3885831,27.4573591 17.3885831,26.9853516 L17.3885831,23.7822266 L16.5487393,23.7822266 L16.5487393,27.1904297 C16.5487393,27.8121776 16.7009188,28.292316 17.0052823,28.6308594 C17.3096458,28.9694027 17.7564187,29.1386719 18.3456143,29.1386719 C18.7492622,29.1386719 19.0894281,29.0589201 19.3661221,28.8994141 C19.6428162,28.7399081 19.8462647,28.5136733 19.9764737,28.2207031 L20.0545987,28.2207031 L20.0545987,29.0458984 L20.85538,29.0458984 L20.85538,23.7822266 Z M25.0847834,28.4013672 C25.5177282,28.4013672 25.8766114,28.2752291 26.1614435,28.0229492 C26.4462757,27.7706693 26.5886896,27.4573586 26.5886896,27.0830078 L26.5886896,26.5996094 L25.172674,26.6923828 C24.404441,26.7444664 24.0203302,27.0309219 24.0203302,27.5517578 C24.0203302,27.8186862 24.1212407,28.0270175 24.3230646,28.1767578 C24.5248885,28.3264981 24.7787922,28.4013672 25.0847834,28.4013672 Z M24.9285334,29.1386719 C24.4174631,29.1386719 23.9934765,28.9978855 23.6565607,28.7163086 C23.319645,28.4347317 23.1511896,28.0530623 23.1511896,27.5712891 C23.1511896,26.6077426 23.7908317,26.088542 25.0701349,26.0136719 L26.5886896,25.9208984 L26.5886896,25.4423828 C26.5886896,24.7718065 26.1915582,24.4365234 25.3972834,24.4365234 C25.0815266,24.4365234 24.8194849,24.493489 24.6111505,24.6074219 C24.4028162,24.7213547 24.269354,24.8824859 24.2107599,25.0908203 L23.3611505,25.0908203 C23.4164894,24.6676411 23.6345861,24.328289 24.0154474,24.0727539 C24.3963087,23.8172188 24.8666816,23.6894531 25.4265802,23.6894531 C26.0678595,23.6894531 26.5618324,23.8448878 26.9085138,24.1557617 C27.2551953,24.4666357 27.4285334,24.8955051 27.4285334,25.4423828 L27.4285334,29.0458984 L26.6277521,29.0458984 L26.6277521,28.2695312 L26.5496271,28.2695312 C26.3803554,28.5494806 26.1557483,28.7643222 25.875799,28.9140625 C25.5958497,29.0638028 25.2800976,29.1386719 24.9285334,29.1386719 Z" fill="#FFFFFF"></path>
            <circle id="Oval-2" fill="#FFFFFF" cx="27.5" cy="15.5" r="3.5"></circle>
        </g>
    </g>
</svg>

<svg viewBox="0 0 42 42" xmlns="http://www.w3.org/2000/svg"><g fill="none" fill-rule="evenodd"><path d="M6 11.005A2 2 0 0 1 8.004 9h22c.55 0 1.309.313 1.702.706l3.588 3.588c.39.39.706 1.157.706 1.7v16.009A1.998 1.998 0 0 1 34.008 33H7.992C6.892 33 6 32.103 6 30.995v-19.99z" fill="#4D3DF4"/><path d="M14.277 28.255H10.88V22H10v7.046h4.277v-.791zm6.578-4.473h-.84v3.115c0 .463-.122.824-.368 1.084-.246.26-.602.391-1.067.391-.42 0-.723-.113-.91-.34-.188-.226-.281-.575-.281-1.047v-3.203h-.84v3.408c0 .622.152 1.102.456 1.44.305.34.751.509 1.34.509.404 0 .744-.08 1.021-.24.277-.16.48-.385.61-.678h.079v.825h.8v-5.264zm4.23 4.62c.433 0 .792-.127 1.076-.38.285-.251.428-.565.428-.939V26.6l-1.416.092c-.769.052-1.153.339-1.153.86 0 .267.101.475.303.625.202.15.456.224.762.224zm-.156.737c-.512 0-.936-.141-1.272-.423-.337-.281-.506-.663-.506-1.145 0-.963.64-1.482 1.92-1.557l1.518-.093v-.479c0-.67-.397-1.005-1.192-1.005-.315 0-.578.056-.786.17a.78.78 0 0 0-.4.484h-.85c.055-.423.274-.763.654-1.018.381-.256.852-.384 1.412-.384.64 0 1.135.156 1.482.467.346.31.52.74.52 1.286v3.604h-.801v-.776h-.078a1.73 1.73 0 0 1-.674.644c-.28.15-.596.225-.947.225z" fill="#FFF"/><circle fill="#FFF" cx="27.5" cy="15.5" r="3.5"/></g></svg>
